X: 1417
T: Ernie Goodman's Waltz
B: australian traditional tunes wiki
B: kameruka bush dance
M:3/4
L:1/8
R: Waltz
Q: 1/4=100
K:D
V:1 
D/E/|"D"F2 A2 F2|"A7"E2 D2 E2|"D"D2 d2 c2|"G"B6|"D"A2 F2 F2|"(Bm)"F2 E2 D2|"A(Em)"E6-|"A7"E2 z2 D>E|
"D"F2 A2 F2|"A7"E2 D2 E2|"D"D2 d2 c2|"G"B6|"D"A2 d2 F2|"A7"E2 D2 E2|D6-|"D"D2 z2 A2|
"D"f3 e f2|"Em"e2 B2 A2|"G"B2 c2 d2|"D"A2 F2 D2|"Em"G2 B2 G2|"D"F2 A2 F2|"A7"E6-|E2 z2 A2|
"D"d3 e f2|"Em"e2 B2 A2|"G"B2 c2 d2|"D"A4 A2|"G"B2 c2 d2|"A7"e2 B2 c2|"D"d2 z2 dd|d2 z2||
% abcbook-tune_id 6342d53af89b7a68ec279765


% abcbook-boost 0
% abcbook-tablature 
% abcbook-transpose 
% abcbook-lastupdated 1665397161566
% abcbook-soundfonts 
% abcbook-repeats 3
% NFF Book 2020

